X: 7
T: The Mason's Apron
R: reel
M: 4/4
L: 1/8
K: Amaj
ed | c2 A2 ABAF | EFAB c2 BA | d2 B2 BcBA | Bcde f2 ed |c2 A2 ABAF | EFAB c2 BA | BABc defa | edcB A2 :|ed | cAeA fAeA |cAeA fedc | dBfB gBfB | dBfB gfed |cAeA fAeA | cAeA fedc | Bcde fefa | edcB A2 :|


Tune 74	Setting 27347

